icon-themes/breeze_svg/cmd/lc_sortdescending.svg

<svg viewBox="0 0 24 24" xmlns="http://www.w3.org/2000/svg"><path d="m6.1113281 3.9003906v.8144532h2.0722657l-2.1835938 3.2539062v.7324219h3.828125v-.8515625h-2.2460938l2.1738282-3.2929688v-.65625zm7.8886719 5.9921875v8.2929689l-2.292969-2.292969-.707031.707031 3.292969 3.292969.207031.207031.207031-.207031 3.292969-3.292969-.707031-.707031-2.292969 2.292969v-8.2929689zm-4 1.4609379v3.455078h.007812v-3.369141c0-.030595-.006563-.05626-.007812-.085937z" fill="#4d4d4d"/><path d="m8.0957031 9.9023438c-.78324.018-1.3851066.1550692-1.8222656.3554682l.2460937.900391c.20947-.073 1.0023169-.326172 1.4667969-.326172h.0625c.64663.027.6933594.26286.6933594.81836v.21875l-.3378906.054687c-1.56649.2274-2.4042969.418894-2.4042969 1.621094 0 .8379.6107106 1.357422 1.4941406 1.357422.6102 0 1.0100929-.255463 1.4199219-.601563l.1269531.509766h.9667964v-3.369141c0-1.0292-.711787-1.5390622-1.804687-1.5390622zm.6464844 2.6777342v1.119141c-.336971.2277-.5921369.392578-1.0292969.392578-.39162 0-.5839843-.245797-.5839844-.591797 0-.6558.5741107-.765034 1.2753907-.865234z" fill="#1d99f3"/></svg>

<svg xmlns="http://www.w3.org/2000/svg" viewBox="0 0 24 24">
 <path 
     style="fill:#4d4d4d" 
     d="M 6.1113281 3.9003906 L 6.1113281 4.7148438 L 8.1835938 4.7148438 L 6 7.96875 L 6 8.7011719 L 9.828125 8.7011719 L 9.828125 7.8496094 L 7.5820312 7.8496094 L 9.7558594 4.5566406 L 9.7558594 3.9003906 L 6.1113281 3.9003906 z M 14 9.8925781 L 14 18.185547 L 11.707031 15.892578 L 11 16.599609 L 14.292969 19.892578 L 14.5 20.099609 L 14.707031 19.892578 L 18 16.599609 L 17.292969 15.892578 L 15 18.185547 L 15 9.8925781 L 14 9.8925781 z M 10 11.353516 L 10 14.808594 L 10.007812 14.808594 L 10.007812 11.439453 C 10.007812 11.408858 10.001249 11.383193 10 11.353516 z "
     />
 <path 
     style="fill:#1d99f3" 
     d="M 8.0957031 9.9023438 C 7.3124631 9.9203438 6.7105965 10.057413 6.2734375 10.257812 L 6.5195312 11.158203 C 6.7290012 11.085203 7.5218481 10.832031 7.9863281 10.832031 L 8.0488281 10.832031 C 8.6954581 10.859031 8.7421875 11.094891 8.7421875 11.650391 L 8.7421875 11.869141 L 8.4042969 11.923828 C 6.8378069 12.151228 6 12.342722 6 13.544922 C 6 14.382822 6.6107106 14.902344 7.4941406 14.902344 C 8.1043406 14.902344 8.5042335 14.646881 8.9140625 14.300781 L 9.0410156 14.810547 L 10.007812 14.810547 L 10.007812 11.441406 C 10.007812 10.412206 9.296025 9.9023438 8.203125 9.9023438 L 8.0957031 9.9023438 z M 8.7421875 12.580078 L 8.7421875 13.699219 C 8.4052165 13.926919 8.1500506 14.091797 7.7128906 14.091797 C 7.3212706 14.091797 7.1289063 13.846 7.1289062 13.5 C 7.1289062 12.8442 7.7030169 12.734966 8.4042969 12.634766 L 8.7421875 12.580078 z "
     />
 </svg>
